svgs/lc_waikiki.svg

<svg xmlns="http://www.w3.org/2000/svg" viewBox="0 0 192 192"><path d="M37.22 132.604c-6.89-9.173-8.653-43.604-3.288-64.2 2.498-9.593 4.012-11.892 7.829-11.892 3.084 0 5.604 2.713 7.234 7.786 3.34 10.397 1.649 15.98-2.198 7.256-4.015-9.107-7.012-8.722-9.605 1.231-2.558 9.821-2.786 31.144-.47 43.843 1.951 10.693 7.949 12.455 10.006 2.939 1.417-6.551 4.239-8.325 4.239-2.664 0 6.244-3.657 15.959-6.888 18.299-1.748 1.267-4.835.098-6.859-2.598Zm58.584 1.176c-1.273-1.971-2.839-7.348-3.481-11.949-2.307-16.553 2.401-32.774 9.511-32.774 4.077 0 4.984-7.058 2.255-17.537-1.985-7.619-2.711-8.092-6.487-4.222-2.338 2.396-4.251 3.146-4.251 1.667 0-14.107 10.378-17.359 13.775-4.316 1.742 6.689 2.119 13.56 2.119 38.646 0 24.408-.318 30.51-1.589 30.51-1.178 0-1.59-4.746-1.59-18.306V97.193h-4.026c-4.335 0-6.57 5.665-6.57 16.65 0 7.322 2.051 11.826 5.385 11.826 1.118 0 2.032 1.831 2.032 4.068 0 2.238-.437 4.068-.973 4.068-.535 0-1.607.801-2.384 1.78-.776.979-2.452.167-3.726-1.805ZM16 95.055c0-35.081.192-38.998 1.854-37.78 1.543 1.131 1.907 6.655 2.164 32.843l.31 31.483h4.811c7.609 0 5.344 9.91-2.601 11.381L16 134.193Zm46.194 1.965c-1.599-20.456-2.654-38.165-2.345-39.353 1.559-5.985 3.501 4.613 5.289 28.865 1.092 14.813 2.385 26.933 2.873 26.933.488 0 1.408-7.78 2.045-17.289 2.359-35.232 2.7-37.63 5.354-37.63 2.23 0 2.77 3.209 4.367 25.918 1.002 14.255 2.108 27.016 2.457 28.358.995 3.818 2.221-6.208 3.747-30.619 1.259-20.145 3.298-30.474 4.845-24.536.31 1.188-.738 18.805-2.329 39.149-2.698 34.52-3.079 36.989-5.702 36.989-2.591 0-2.961-2.23-4.745-28.635-1.088-16.106-2.437-27.992-3.083-27.165-.632.809-1.901 13.237-2.821 27.618-1.466 22.92-2.004 26.299-4.358 27.369-2.528 1.148-2.858-.97-5.594-35.972Zm51.289-2.159c0-34.897.193-38.804 1.855-37.583 1.579 1.16 1.899 6.935 2.159 38.944.287 35.485.184 37.583-1.855 37.583-2.021 0-2.159-2.473-2.159-38.944Zm8.477 0c0-34.895.193-38.804 1.855-37.59 1.28.935 2.018 6.379 2.384 17.587l.529 16.233 3.622-17.289c1.991-9.509 4.494-17.29 5.562-17.29 2.554 0 2.458 5.085-.275 14.58-4.457 15.487-4.505 20.691-.378 41.389 3.79 19.005 3.81 19.311 1.39 20.712-1.664.963-2.977-1.619-4.069-8.003-.887-5.184-2.671-14.061-3.964-19.728l-2.35-10.303-.034 19.323c-.029 16.568-.335 19.323-2.153 19.323-1.971 0-2.119-2.712-2.119-38.944Zm21.192 0c0-34.897.193-38.804 1.855-37.583 1.579 1.16 1.899 6.935 2.159 38.944.287 35.485.184 37.583-1.855 37.583-2.022 0-2.159-2.473-2.159-38.944Zm7.643 1.361c.259-32.009.579-37.784 2.159-38.944 1.486-1.092 1.854 1.523 1.854 13.174 0 18.268 1.314 18.34 5.44.299 1.791-7.831 3.922-14.239 4.736-14.239 2.077 0 1.863 3.402-1.169 18.668-1.457 7.334-2.649 14.961-2.649 16.949 0 1.988 1.417 10.805 3.149 19.594 3.746 19.01 3.895 22.082 1.067 22.082-1.33 0-3.402-6.868-5.471-18.136-1.831-9.975-3.728-17.189-4.216-16.032s-.887 9.319-.887 18.136c0 13.419-.352 16.032-2.159 16.032-2.038 0-2.142-2.098-1.854-37.583Zm21.192 0c.259-32.009.579-37.784 2.159-38.944 1.661-1.221 1.854 2.686 1.854 37.583 0 36.471-.137 38.944-2.159 38.944-2.038 0-2.142-2.098-1.854-37.583Z"/></svg>

<svg
    xmlns="http://www.w3.org/2000/svg"
    viewBox="0 0 192 192"
    id="vector">
    <path
        id="path"
        d="M 37.22 132.604 C 30.33 123.431 28.567 89 33.932 68.404 C 36.43 58.811 37.944 56.512 41.761 56.512 C 44.845 56.512 47.365 59.225 48.995 64.298 C 52.335 74.695 50.644 80.278 46.797 71.554 C 42.782 62.447 39.785 62.832 37.192 72.785 C 34.634 82.606 34.406 103.929 36.722 116.628 C 38.673 127.321 44.671 129.083 46.728 119.567 C 48.145 113.016 50.967 111.242 50.967 116.903 C 50.967 123.147 47.31 132.862 44.079 135.202 C 42.331 136.469 39.244 135.3 37.22 132.604 Z M 95.804 133.78 C 94.531 131.809 92.965 126.432 92.323 121.831 C 90.016 105.278 94.724 89.057 101.834 89.057 C 105.911 89.057 106.818 81.999 104.089 71.52 C 102.104 63.901 101.378 63.428 97.602 67.298 C 95.264 69.694 93.351 70.444 93.351 68.965 C 93.351 54.858 103.729 51.606 107.126 64.649 C 108.868 71.338 109.245 78.209 109.245 103.295 C 109.245 127.703 108.927 133.805 107.656 133.805 C 106.478 133.805 106.066 129.059 106.066 115.499 L 106.066 97.193 L 102.04 97.193 C 97.705 97.193 95.47 102.858 95.47 113.843 C 95.47 121.165 97.521 125.669 100.855 125.669 C 101.973 125.669 102.887 127.5 102.887 129.737 C 102.887 131.975 102.45 133.805 101.914 133.805 C 101.379 133.805 100.307 134.606 99.53 135.585 C 98.754 136.564 97.078 135.752 95.804 133.78 Z M 16 95.055 C 16 59.974 16.192 56.057 17.854 57.275 C 19.397 58.406 19.761 63.93 20.018 90.118 L 20.328 121.601 L 25.139 121.601 C 32.748 121.601 30.483 131.511 22.538 132.982 L 16 134.193 Z M 62.194 97.02 C 60.595 76.564 59.54 58.855 59.849 57.667 C 61.408 51.682 63.35 62.28 65.138 86.532 C 66.23 101.345 67.523 113.465 68.011 113.465 C 68.499 113.465 69.419 105.685 70.056 96.176 C 72.415 60.944 72.756 58.546 75.41 58.546 C 77.64 58.546 78.18 61.755 79.777 84.464 C 80.779 98.719 81.885 111.48 82.234 112.822 C 83.229 116.64 84.455 106.614 85.981 82.203 C 87.24 62.058 89.279 51.729 90.826 57.667 C 91.136 58.855 90.088 76.472 88.497 96.816 C 85.799 131.336 85.418 133.805 82.795 133.805 C 80.204 133.805 79.834 131.575 78.05 105.17 C 76.962 89.064 75.613 77.178 74.967 78.005 C 74.335 78.814 73.066 91.242 72.146 105.623 C 70.68 128.543 70.142 131.922 67.788 132.992 C 65.26 134.14 64.93 132.022 62.194 97.02 Z M 113.483 94.861 C 113.483 59.964 113.676 56.057 115.338 57.278 C 116.917 58.438 117.237 64.213 117.497 96.222 C 117.784 131.707 117.681 133.805 115.642 133.805 C 113.621 133.805 113.483 131.332 113.483 94.861 Z M 121.96 94.861 C 121.96 59.966 122.153 56.057 123.815 57.271 C 125.095 58.206 125.833 63.65 126.199 74.858 L 126.728 91.091 L 130.35 73.802 C 132.341 64.293 134.844 56.512 135.912 56.512 C 138.466 56.512 138.37 61.597 135.637 71.092 C 131.18 86.579 131.132 91.783 135.259 112.481 C 139.049 131.486 139.069 131.792 136.649 133.193 C 134.985 134.156 133.672 131.574 132.58 125.19 C 131.693 120.006 129.909 111.129 128.616 105.462 L 126.266 95.159 L 126.232 114.482 C 126.203 131.05 125.897 133.805 124.079 133.805 C 122.108 133.805 121.96 131.093 121.96 94.861 Z M 143.152 94.861 C 143.152 59.964 143.345 56.057 145.007 57.278 C 146.586 58.438 146.906 64.213 147.166 96.222 C 147.453 131.707 147.35 133.805 145.311 133.805 C 143.289 133.805 143.152 131.332 143.152 94.861 Z M 150.795 96.222 C 151.054 64.213 151.374 58.438 152.954 57.278 C 154.44 56.186 154.808 58.801 154.808 70.452 C 154.808 88.72 156.122 88.792 160.248 70.751 C 162.039 62.92 164.17 56.512 164.984 56.512 C 167.061 56.512 166.847 59.914 163.815 75.18 C 162.358 82.514 161.166 90.141 161.166 92.129 C 161.166 94.117 162.583 102.934 164.315 111.723 C 168.061 130.733 168.21 133.805 165.382 133.805 C 164.052 133.805 161.98 126.937 159.911 115.669 C 158.08 105.694 156.183 98.48 155.695 99.637 C 155.207 100.794 154.808 108.956 154.808 117.773 C 154.808 131.192 154.456 133.805 152.649 133.805 C 150.611 133.805 150.507 131.707 150.795 96.222 Z M 171.987 96.222 C 172.246 64.213 172.566 58.438 174.146 57.278 C 175.807 56.057 176 59.964 176 94.861 C 176 131.332 175.863 133.805 173.841 133.805 C 171.803 133.805 171.699 131.707 171.987 96.222 Z"
        fill="#000000"
        stroke-width="12"/>
</svg>
